X:980
T:Yes blanca como la lleche (CT 489)
C:Tradicional
S:Msica Tradicional Asturiana, (C) Tello & Tito. Asturies, 2001.
S:http://pagina.de/MusTradAst <telloytito@asturies.org>
N:Cancin de empleo indeterminado, transcrita en Avils.
A:Asturies
O:Avils
Z:Cancioneru de Torner 489
M:3/4
L:1/8
Q:1/4=108
K:C
|cc cc Bc|(e(3d/4c/4G) E2 EG|B2 A2 DF|A2 G4|
AF Ac BA|G2 (EC) EG|F2 DB, DF|(E>D) C2 z2||
W:Yes blanca como la leche,
W:nidia como la mantega;
W:son tus geyos dos luceros
W:y tu boca una cereza.
W:
W:Yes blanca como la blima
W:cuando el viento la solmena;
W:son tus geyos dos luceros
W:y tu boca una cereza.
W:
